16x16/panel/teams-tray-dnd.svg

<svg height="16" width="16" xmlns="http://www.w3.org/2000/svg"><path d="m2.023 0c-.566 0-1.023.457-1.023 1.023v12.954c0 .566.457 1.023 1.023 1.023h6.739a4.5 4.5 0 0 1 -.762-2.5 4.5 4.5 0 0 1 .031-.5h-1.031v-6h-3v-3h9v3h-3v2.762a4.5 4.5 0 0 1 2.5-.762 4.5 4.5 0 0 1 3.5 1.674v-8.65c0-.568-.457-1.024-1.023-1.024zm10.477 9a3.5 3.5 0 0 0 -3.5 3.5 3.5 3.5 0 0 0 3.5 3.5 3.5 3.5 0 0 0 3.5-3.5 3.5 3.5 0 0 0 -3.5-3.5zm-2.5 3h5v1h-5z" fill="#8b9cbe"/></svg>

<svg xmlns="http://www.w3.org/2000/svg" width="16" height="16"><defs><style id="current-color-scheme" type="text/css"></style></defs><path style="fill:currentColor;color:#8b9cbe" d="M2.023 0C1.457 0 1 .457 1 1.023v12.954C1 14.543 1.457 15 2.023 15h6.739A4.5 4.5 0 0 1 8 12.5a4.5 4.5 0 0 1 .031-.5H7V6H4V3h9v3h-3v2.762A4.5 4.5 0 0 1 12.5 8 4.5 4.5 0 0 1 16 9.674v-8.65C16 .456 15.543 0 14.977 0H2.023zM12.5 9A3.5 3.5 0 0 0 9 12.5a3.5 3.5 0 0 0 3.5 3.5 3.5 3.5 0 0 0 3.5-3.5A3.5 3.5 0 0 0 12.5 9zM10 12h5v1h-5v-1z"/></svg>
